X:113
T:Set am\'ericain
Z:robin.beech@mcgill.ca
M:4/4
L:1/8
K:D
(3ABc |: dAFA DAFA | EAFA DABc | dAFA DAFA | eedf eABc | 
dAFA DAFA | EAFA DABc | dcdf edBc |1 dfec d2 (3ABc :|2 dfec d2c2 |:
BABc dcde | fefg fedc | BABc dcBA | GFGA G2F2 |
BABc dcde | fefg fedc | BABc dcBA |1 Bbfd B3F :|2 Bbfd B2 (3ABc |]

